X: 3
T: No_12_I_Am_Trying_to_Cure_This_Sick_Man.krn
N: Derived from No_12_I_Am_Trying_to_Cure_This_Sick_Man.krn
%%abc-version 2.0
%%abcx-abcm2ps-target-version 5.9.1 (29 Sep 2008)
%%abc-creator hum2abc beta
%%abcx-conversion-date 2019/03/15 08:26:49
%%humdrum-veritas 3435260344
%%humdrum-veritas-data 3755577811
%%linebreak <none>
%%barnumbers 0
L: 1/8
M: 2/4
%%staves {1 2}
V: 1 clef=bass
V: 2 clef=bass
K: F
[V:1] [K:clef=bass][M:2/4]C4 [I:setbarnb 2]| 
[V:2] [K:clef=bass][M:2/4]G,,G,, G,,G,, | 
[V:1] (3CA,A,C2 | 
[V:2] G,,G,,z2 | 
[V:1] C4 | 
[V:2] z4 | 
[V:1] CA, A, z | 
[V:2] z4 | 
[V:1] A,4 | 
[V:2] z4 | 
[V:1] CA, A, z | 
[V:2] z4 | 
[V:1] F,2F,2 | 
[V:2] z4 | 
[V:1] F,2F, z | 
[V:2] z4 | 
[V:1] A,2C2 | 
[V:2] z4 | 
[V:1] (3CA,A, (3CA,F, | 
[V:2] z4 | 
[V:1] A,4 | 
[V:2] z4 | 
[V:1] CA, A, z | 
[V:2] z4 | 
[V:1] A,4 | 
[V:2] z4 | 
[V:1] CA, A, z | 
[V:2] z4 | 
[V:1] F,4 | 
[V:2] z4 | 
[V:1] A,2A,2 :|]  
[V:2] z4 :|]  



